public/pieces/icpieces/bB.svg

<svg height="368" width="368" xmlns="http://www.w3.org/2000/svg"><path d="m168 101c-7.297 9.493-13.357 20.035-20 30-16.206 24.309-33.882 50.351-28.715 81 2.456 14.563 10.632 27.928 18.716 40 2.509 3.746 10.77 11.916 9.472 16.787-1.196 4.487-10.752 6.813-14.473 8.522-14.003 6.429-29.53 12.484-41.9599 21.734-12.4264 9.247-9.0401 28.445-9.0401 41.957h204c0-13.512 3.386-32.71-9.04-41.957-12.43-9.25-27.957-15.305-41.96-21.734-3.721-1.709-13.277-4.035-14.473-8.522-1.199-4.498 5.819-11.393 8.129-14.787 7.987-11.737 15.555-24.146 19.188-38 8.49-32.376-12.166-61.483-29.177-87-5.807-8.71-10.944-19.922-18.667-27 3.489-4.1047 6.716-8.5635 7.671-14 .728-4.1411.555-8.9586-.61-13-3.986-13.8233-21.421-20.3223-34.061-14-11.147 5.5755-16.109 19.4391-11.521 31 1.449 3.65 3.535 6.5255 6.521 9z" fill="#fff"/><path d="m180 69.6528c-17.069 5.3318-8.983 31.6742 8 26.3503 17.098-5.3598 8.818-31.6041-8-26.3503m-67 228.3472c4.215 1.769 9.465 1 14 1h29 99c-9.27-7.489-23.301-11.39-34-16.753-4.445-2.228-11.655-4.894-13.073-10.262-1.107-4.195 2.464-9.578 4.537-12.985 6.188-10.172 13.817-19.35 19.277-30 12.774-24.919 6.336-49.004-7.345-72-4.026-6.766-8.296-14.959-14.396-20-11.471 21.548-27.661 40.882-38 63-2.379-1.635-6.49-3.632-6.311-7.04.245-4.677 5.919-11.058 8.361-14.96 7.475-11.941 14.842-23.958 22.153-36 2.808-4.626 9.284-11.28 6.9-17-3.78-9.066-13.25-24.181-25.063-17.972-7.588 3.988-12.741 17.023-17.373 23.972-15.273 22.909-37.269 50.428-30.998 80 3.228 15.224 12.286 28.451 21.051 41 3.372 4.829 11.062 13.511 9.353 19.985-1.336 5.057-7.869 7.65-12.073 9.767-11.437 5.76-23.058 11.615-35 16.248m-21 33h184c0-5.513 1.822-18.427-4.394-21.397-3.391-1.619-8.934-.603-12.606-.603h-30-94-27c-3.414 0-8.4464-.906-11.6057.603-6.2167 2.97-4.3943 15.884-4.3943 21.397z"/></svg>

<?xml version="1.0" standalone="yes"?>
<svg xmlns="http://www.w3.org/2000/svg" width="368" height="368">
<path style="fill:#ffffff; stroke:none;" d="M168 101C160.703 110.493 154.643 121.035 148 131C131.794 155.309 114.118 181.351 119.285 212C121.741 226.563 129.917 239.928 138.001 252C140.51 255.746 148.771 263.916 147.473 268.787C146.277 273.274 136.721 275.6 133 277.309C118.997 283.738 103.47 289.793 91.0401 299.043C78.6137 308.29 82 327.488 82 341L286 341C286 327.488 289.386 308.29 276.96 299.043C264.53 289.793 249.003 283.738 235 277.309C231.279 275.6 221.723 273.274 220.527 268.787C219.328 264.289 226.346 257.394 228.656 254C236.643 242.263 244.211 229.854 247.844 216C256.334 183.624 235.678 154.517 218.667 129C212.86 120.29 207.723 109.078 200 102C203.489 97.8953 206.716 93.4365 207.671 88C208.399 83.8589 208.226 79.0414 207.061 75C203.075 61.1767 185.64 54.6777 173 61C161.853 66.5755 156.891 80.4391 161.479 92C162.928 95.65 165.014 98.5255 168 101z"/>
<path style="fill:#000000; stroke:none;" d="M180 69.6528C162.931 74.9846 171.017 101.327 188 96.0031C205.098 90.6433 196.818 64.399 180 69.6528M113 298C117.215 299.769 122.465 299 127 299L156 299L255 299C245.73 291.511 231.699 287.61 221 282.247C216.555 280.019 209.345 277.353 207.927 271.985C206.82 267.79 210.391 262.407 212.464 259C218.652 248.828 226.281 239.65 231.741 229C244.515 204.081 238.077 179.996 224.396 157C220.37 150.234 216.1 142.041 210 137C198.529 158.548 182.339 177.882 172 200C169.621 198.365 165.51 196.368 165.689 192.96C165.934 188.283 171.608 181.902 174.05 178C181.525 166.059 188.892 154.042 196.203 142C199.011 137.374 205.487 130.72 203.103 125C199.323 115.934 189.853 100.819 178.04 107.028C170.452 111.016 165.299 124.051 160.667 131C145.394 153.909 123.398 181.428 129.669 211C132.897 226.224 141.955 239.451 150.72 252C154.092 256.829 161.782 265.511 160.073 271.985C158.737 277.042 152.204 279.635 148 281.752C136.563 287.512 124.942 293.367 113 298M92 331L276 331C276 325.487 277.822 312.573 271.606 309.603C268.215 307.984 262.672 309 259 309L229 309L135 309L108 309C104.586 309 99.5536 308.094 96.3943 309.603C90.1776 312.573 92 325.487 92 331z"/>
</svg>
